web/ui/src/components/workflow/workflow-viewer/svgs/tool/full-hover.svg

<svg height="24" viewBox="0 0 24 24" width="24" xmlns="http://www.w3.org/2000/svg"><g fill="none" fill-rule="evenodd"><path d="m0 0h24v24h-24z" fill="#000" fill-rule="nonzero" opacity="0"/><path d="m4 0h12c2.209139 0 4 1.790861 4 4v12c0 2.209139-1.790861 4-4 4h-12c-2.209139 0-4-1.790861-4-4v-12c0-2.209139 1.790861-4 4-4zm.6 1h10.8c1.9882251 0 3.6 1.6117749 3.6 3.6v10.8c0 1.9882251-1.6117749 3.6-3.6 3.6h-10.8c-1.9882251 0-3.6-1.6117749-3.6-3.6v-10.8c0-1.9882251 1.6117749-3.6 3.6-3.6zm2.94513889 14.8923611h-1.71875c-.9453125 0-1.71875-.7734375-1.71875-1.71875v-1.71875c0-.3151042.2578125-.5729167.57291667-.5729167.31510416 0 .57291666.2578125.57291666.5729167v1.71875c0 .3151042.2578125.5729167.57291667.5729167h1.71875c.31510417 0 .57291667.2578125.57291667.5729166 0 .3151042-.2578125.5729167-.57291667.5729167zm6.62847221 0h-1.71875c-.3151042 0-.5729167-.2578125-.5729167-.5729167 0-.3151041.2578125-.5729166.5729167-.5729166h1.71875c.3151042 0 .5729167-.2578125.5729167-.5729167v-1.71875c0-.3151042.2578125-.5729167.5729166-.5729167.3151042 0 .5729167.2578125.5729167.5729167v1.71875c0 .9453125-.7734375 1.71875-1.71875 1.71875zm1.1458333-7.77430554c-.3151041 0-.5729166-.2578125-.5729166-.57291667v-1.71875c0-.31510417-.2578125-.57291667-.5729167-.57291667h-1.71875c-.3151042 0-.5729167-.2578125-.5729167-.57291666 0-.31510417.2578125-.57291667.5729167-.57291667h1.71875c.9453125 0 1.71875.7734375 1.71875 1.71875v1.71875c0 .31510417-.2578125.57291667-.5729167.57291667zm-10.63888884 0c-.31510417 0-.57291667-.2578125-.57291667-.57291667v-1.71875c0-.9453125.7734375-1.71875 1.71875-1.71875h1.71875c.31510417 0 .57291667.2578125.57291667.57291667 0 .31510416-.2578125.57291666-.57291667.57291666h-1.71875c-.31510417 0-.57291667.2578125-.57291667.57291667v1.71875c0 .31510417-.2578125.57291667-.57291666.57291667z" fill="#096dd9" transform="translate(2 2)"/></g></svg>

<?xml version="1.0" encoding="UTF-8"?>
<svg width="24px" height="24px" viewBox="0 0 24 24" version="1.1" xmlns="http://www.w3.org/2000/svg" xmlns:xlink="http://www.w3.org/1999/xlink">
    <title>放大</title>
    <g id="页面-1" stroke="none" stroke-width="1" fill="none" fill-rule="evenodd">
        <g id="工作流程图备份" transform="translate(-1571.000000, -28.000000)">
            <g id="放大01" transform="translate(1571.000000, 28.000000)">
                <rect id="矩形" fill="#000000" fill-rule="nonzero" opacity="0" x="0" y="0" width="24" height="24"></rect>
                <g id="编组-9" transform="translate(2.000000, 2.000000)" fill="#096DD9">
                    <path d="M4,0 L16,0 C18.209139,-4.05812251e-16 20,1.790861 20,4 L20,16 C20,18.209139 18.209139,20 16,20 L4,20 C1.790861,20 2.705415e-16,18.209139 0,16 L0,4 C-2.705415e-16,1.790861 1.790861,4.05812251e-16 4,0 Z M4.6,1 L15.4,1 C17.3882251,1 19,2.6117749 19,4.6 L19,15.4 C19,17.3882251 17.3882251,19 15.4,19 L4.6,19 C2.6117749,19 1,17.3882251 1,15.4 L1,4.6 C1,2.6117749 2.6117749,1 4.6,1 Z M7.54513889,15.8923611 L5.82638889,15.8923611 C4.88107639,15.8923611 4.10763889,15.1189236 4.10763889,14.1736111 L4.10763889,12.4548611 C4.10763889,12.1397569 4.36545139,11.8819444 4.68055556,11.8819444 C4.99565972,11.8819444 5.25347222,12.1397569 5.25347222,12.4548611 L5.25347222,14.1736111 C5.25347222,14.4887153 5.51128472,14.7465278 5.82638889,14.7465278 L7.54513889,14.7465278 C7.86024306,14.7465278 8.11805556,15.0043403 8.11805556,15.3194444 C8.11805556,15.6345486 7.86024306,15.8923611 7.54513889,15.8923611 Z M14.1736111,15.8923611 L12.4548611,15.8923611 C12.1397569,15.8923611 11.8819444,15.6345486 11.8819444,15.3194444 C11.8819444,15.0043403 12.1397569,14.7465278 12.4548611,14.7465278 L14.1736111,14.7465278 C14.4887153,14.7465278 14.7465278,14.4887153 14.7465278,14.1736111 L14.7465278,12.4548611 C14.7465278,12.1397569 15.0043403,11.8819444 15.3194444,11.8819444 C15.6345486,11.8819444 15.8923611,12.1397569 15.8923611,12.4548611 L15.8923611,14.1736111 C15.8923611,15.1189236 15.1189236,15.8923611 14.1736111,15.8923611 Z M15.3194444,8.11805556 C15.0043403,8.11805556 14.7465278,7.86024306 14.7465278,7.54513889 L14.7465278,5.82638889 C14.7465278,5.51128472 14.4887153,5.25347222 14.1736111,5.25347222 L12.4548611,5.25347222 C12.1397569,5.25347222 11.8819444,4.99565972 11.8819444,4.68055556 C11.8819444,4.36545139 12.1397569,4.10763889 12.4548611,4.10763889 L14.1736111,4.10763889 C15.1189236,4.10763889 15.8923611,4.88107639 15.8923611,5.82638889 L15.8923611,7.54513889 C15.8923611,7.86024306 15.6345486,8.11805556 15.3194444,8.11805556 Z M4.68055556,8.11805556 C4.36545139,8.11805556 4.10763889,7.86024306 4.10763889,7.54513889 L4.10763889,5.82638889 C4.10763889,4.88107639 4.88107639,4.10763889 5.82638889,4.10763889 L7.54513889,4.10763889 C7.86024306,4.10763889 8.11805556,4.36545139 8.11805556,4.68055556 C8.11805556,4.99565972 7.86024306,5.25347222 7.54513889,5.25347222 L5.82638889,5.25347222 C5.51128472,5.25347222 5.25347222,5.51128472 5.25347222,5.82638889 L5.25347222,7.54513889 C5.25347222,7.86024306 4.99565972,8.11805556 4.68055556,8.11805556 Z" id="矩形-3"></path>
                </g>
            </g>
        </g>
    </g>
</svg>
